!!!COM: Nasser, Abdul
!!!CDT: b.1952
!!!OTL: National Anthem, Qatar
!!!ENC: Davis, Matthew J.
!!No Words, Melody Line Only
**kern
*clefG2
*k[b-e-]
*B-:
*M2/4
=1-
4.ff
16ff
16ff
=2
4.ff
16ff
16ff
=3
8ff
8ee-
8dd
8cc
=4
8b-
8cc
8dd
8ee-
=5
4ff
4.ff
16ff
=6
8ff
16ff
16ff
4ff
=7
8r
16ff
16ff
4ff
=8
8r
16ff
16ff
8.ff
16ee-
=9
8ee-
16dd
16dd
8.dd
16cc
=10
4cc
4b-
=11
6dd
6cc
6dd
6ee-
6dd
6ee-
=12
8ff
16ff
16ff
8.ff
16ee-
=13
8ee-
16dd
16dd
8.dd
16cc
=14
4cc
4b-
=15
6ee-
6dd
6ee-
6ff
6ee-
6ff
=16
8gg
16ee-
16ee-
8.ff
16ff
=17
8ee-
8ee-
8.ff
16dd
=18
8n-
16f
16cc
8.a
16b-
=19
4g
4f
=20
4.cc
16dd
16cc
=21
!First Time
=||22
!Last Time
2b-
=23
4b-
4r
!Fine
=24
4b-
8.f
16f
=25
8b-
8b-
8.b-
16b-
=26
4cc
4ee-
=27
4cc
4r
=28
8d
16b-
16b-
8.b-
16b-
=29
4b-
4f
=30
8f
4g
8b-
=31
2b-
=||32
8e-
16ee-
16ee-
8.ee-
16ff
=33
8dd
8ee-
8.cc
16dd
=34
8.b-
16cc
8.a
16b-
=35
4g
4f
=36
4.cc
16dd
16cc
=37
2b-
==|!:38
8g
16ee-
16ee-
8.ee-
16dd
=39
8.dd
16cc
8.cc
16b-
=40
4b-
4r
=41
8b-
16ee-
16ee-
8.ee-
16dd
=42
4dd
4cc
=43
8.b-
16cc
4cc
=44
8a
16dd
16dd
8.dd
16dd
=45
4b-
4dd
=46
8.cc
16b-
[4ee-
=47
2ee-]
=48
8ff
8ff
8.dd
16ee-
=49
4cc
4b-
=50
8.a
16b-
4b-
=51
2b-
!D. Coda Symbol al Fine
=:|!
*-
